teeny/solid/triangle.svg

<svg width="15" height="15" viewBox="0 0 15 15" fill="none" xmlns="http://www.w3.org/2000/svg">
<path d="M7.93189 1.24806C7.84228 1.09446 7.67783 1 7.5 1C7.32217 1 7.15772 1.09446 7.06811 1.24806L0.0681106 13.2481C-0.0220988 13.4027 -0.0227402 13.5938 0.0664289 13.749C0.155598 13.9043 0.320967 14 0.5 14H14.5C14.679 14 14.8444 13.9043 14.9336 13.749C15.0227 13.5938 15.0221 13.4027 14.9319 13.2481L7.93189 1.24806Z" fill="black"/>
</svg>

<svg viewBox="0 0 15 15" xmlns="http://www.w3.org/2000/svg"><path d="M7.93 1.24c-.09-.16-.26-.25-.44-.25s-.35.09-.44.24l-7 12c-.1.15-.1.34-.01.5 .08.15.25.25.43.25h14c.17 0 .34-.1.43-.26 .08-.16.08-.35-.01-.51L7.88 1.2Z"/></svg>
